X:6514
T:Grant's
Z: id:dc-reel-121
M:C
L:1/8
K:E Major
agf|e2BA GBEB|GBEB GEB,B,|B,EGE B,EGE|FGFE DB,B,d|!
e2BA GBEB|GBEB GEB=d|cBAa gfed|fedf e:|!
z (3Bcd|e2ga bgeg|fcfe dfBd|efga bgeg|fedc B3=d|!
cAce BGBe|AFA=d F=DFA|EGBe gfed|fedf e:|!
